X: 1
T: M\"annik\"oss\"a
T: Among the Pines
R: shottish
S: Arrangement by Willie Larsen
N: Also played with parts interchanged.
Z: John Chambers <jc:trillian.mit.edu>
M: C
L: 1/8
K: G
   B>c \
| "G"d2 e2 d2 g2 | d>e d>B G2 B>c | d2 B>d g2 B2 | "D7"c>B A>G F2 A>B | "D7"c2 d2 c2 e2 |
| c>d c>A F2 A>B | c2 B>c e>d ^c>d | (3Bc^c (3def g2 B>=c | "G"d2 e2 d2 g2 | d>e d>B G2 B>c |
| d2 B>d g2 f2 | "C"e6 A>B | "D7"c>d c>A F2 f>e | "G"d>e d>B G2 f>e | "D7"d2 c2 B2 A2 | "G"(3GBd B>d "fine"g2 |]
%K: Em
[| B>A \
| "Em"G2 E2 (3EGB e>d | "Am"c2 A2 A2 B>c | "B7"B2 F2 B2 A2 | "Em"G>A "B7"F>G "Em"E2 B>A \
| "Em"G2 E2 (3EGB e>d | "Am"c2 A2 A2 B>c | "B7"B2 ^AB g2 f2 | "Em"e6 "d.C."y|]
